hero/outline/arrow-right-circle.svg

<svg width="24" height="24" viewBox="0 0 24 24" fill="none" xmlns="http://www.w3.org/2000/svg">
<path d="M12.75 15L15.75 12M15.75 12L12.75 9M15.75 12L8.25 12M21 12C21 16.9706 16.9706 21 12 21C7.02944 21 3 16.9706 3 12C3 7.02944 7.02944 3 12 3C16.9706 3 21 7.02944 21 12Z" stroke="#0F172A" stroke-width="1.5" stroke-linecap="round" stroke-linejoin="round"/>
</svg>

<svg viewBox="0 0 24 24" xmlns="http://www.w3.org/2000/svg"><path fill="none" stroke="#000" stroke-linecap="round" stroke-linejoin="round" stroke-width="1.5" d="M12.75 15l3-3m0 0l-3-3m3 3h-7.5M21 12v0c0 4.97-4.03 9-9 9 -4.98 0-9-4.03-9-9v0c0-4.98 4.02-9 9-9 4.97 0 9 4.02 9 9Z"/></svg>
